dist/static/img/svg/skype.svg

<svg width="32" height="32" viewBox="0 0 32 32" fill="none" xmlns="http://www.w3.org/2000/svg">
<g clip-path="url(#clip0_578_3822)">
<path d="M16.0651 25.6307C10.7491 25.6307 8.3211 22.9227 8.3211 20.936C8.31976 20.4627 8.51443 20.0094 8.85843 19.6827C9.20243 19.3574 9.6651 19.1867 10.1384 19.2134C12.4144 19.2134 11.8184 22.6267 16.0651 22.6267C18.2358 22.6267 19.5104 21.32 19.5104 20.092C19.5104 19.3547 19.0891 18.512 17.6558 18.1747L12.9144 16.9787C9.1051 16.0094 8.4411 13.892 8.4411 11.9267C8.4411 7.84936 12.1704 6.37336 15.7224 6.37336C18.9944 6.37336 22.8824 8.18003 22.8824 10.6254C22.8824 11.6787 22.0024 12.2427 20.9811 12.2427C19.0371 12.2427 19.3638 9.51336 15.4544 9.51336C13.5104 9.51336 12.4878 10.4254 12.4878 11.7C12.4878 12.9747 13.9998 13.4067 15.3278 13.6974L18.8264 14.488C22.6624 15.352 23.6838 17.6014 23.6838 19.756C23.6838 23.0694 21.1184 25.6307 16.0611 25.6307M30.7424 18.6187C30.8944 17.7494 30.9704 16.868 30.9691 15.984C30.9878 11.548 29.0384 7.33336 25.6478 4.4747C22.2571 1.61603 17.7731 0.406696 13.4038 1.1747C12.0611 0.401363 10.5384 -0.00397068 8.9891 2.93208e-05C5.8091 0.0200293 2.8771 1.72403 1.28776 4.4787C-0.302904 7.23336 -0.312238 10.624 1.2611 13.388C0.383762 18.212 1.9211 23.16 5.37843 26.636C8.83576 30.112 13.7758 31.6774 18.6038 30.8254C19.9451 31.5974 21.4664 32.0027 23.0131 32C26.1918 31.98 29.1211 30.276 30.7104 27.5227C32.2998 24.7694 32.3131 21.3814 30.7424 18.6187Z" fill="#00AAE8"/>
</g>
<defs>
<clipPath id="clip0_578_3822">
<rect width="32" height="32" fill="white"/>
</clipPath>
</defs>
</svg>

<svg width="32" height="32" viewBox="0 0 32 32" fill="none" xmlns="http://www.w3.org/2000/svg"><g clip-path="url(#clip0_578_3822)"><path d="M16.065 25.63c-5.316 0-7.744-2.707-7.744-4.694a1.722 1.722 0 011.817-1.723c2.276 0 1.68 3.414 5.927 3.414 2.17 0 3.445-1.307 3.445-2.535 0-.737-.42-1.58-1.854-1.917l-4.742-1.196c-3.809-.97-4.473-3.087-4.473-5.052 0-4.078 3.73-5.554 7.281-5.554 3.272 0 7.16 1.807 7.16 4.252 0 1.054-.88 1.618-1.9 1.618-1.945 0-1.618-2.73-5.528-2.73-1.944 0-2.966.912-2.966 2.187s1.512 1.707 2.84 1.997l3.498.791c3.836.864 4.858 3.113 4.858 5.268 0 3.313-2.566 5.875-7.623 5.875m14.681-7.012c.152-.87.228-1.751.227-2.635a14.971 14.971 0 00-17.565-14.81A8.8 8.8 0 008.989 0a8.956 8.956 0 00-7.728 13.388 14.984 14.984 0 0017.343 17.437A8.81 8.81 0 0023.014 32a8.955 8.955 0 007.73-13.381z" fill="#00AAE8"/></g><defs><clipPath id="clip0_578_3822"><path fill="#fff" d="M0 0h32v32H0z"/></clipPath></defs></svg>
